X: 354
T: Rabbit in the Grass
B: canberra pickers and fiddlers
B: tunes
L:1/16
Q: 1/4=100
K:G
V:1 
BA|"G"GABd g2(ga)|gde(f ge)dB|GABd g2d2|"D7"cBA(G FD)EF|!
"G"GABd g2(ga)|gde(f gf)g(a|ba)b(a "C"ga e8d )ge|"D7"dcBA "G"G2G2:|]!
"G"(G,B,)DF G2G2|(Bd)AF G2G2|(G,B,)DF G2G(A|"C"GED)E "D"DCB,A,|!
"G"(G,B,)DF G2G2|(Bd)AF G2G2|"C"(ga)ge "G"(dB)G(A|"D7"Bd)AF "G"(G2G2):|]
% abcbook-tune_id 67ab6b73c7f922f50f31fa94
% abcbook-tune_composer_id 
% abcbook-link-0 https://www.youtube.com/watch?v=vvPleLOH__M
% abcbook-link-title-0 Rabbit in the Grass
% abcbook-boost 0
% abcbook-difficulty 0
% abcbook-tags old time tunes
% abcbook-tablature 
% abcbook-transpose 
% abcbook-tuning GDAE
% abcbook-lastupdated 1739287455042
% abcbook-src-url 
% abcbook-soundfonts 
% abcbook-repeats 1
% Titles One title
% Transcriptions Only 1 transcription
% Movement Has some stepwise movement
% Mode major
% Key G
% Time_signature 2/4
% Has_accompaniment_chords Has chords

